icons/modern/package.svg

<svg width="32" height="32" viewBox="0 0 32 32" fill="none" xmlns="http://www.w3.org/2000/svg">
<g filter="url(#filter0_i_18_21935)">
<path d="M3.78125 9.71092C3.78125 9.53943 3.86913 9.3799 4.01409 9.28828L15.5766 1.97934C15.7398 1.87619 15.9477 1.87619 16.1109 1.97934L27.6734 9.28828C27.8184 9.3799 27.9062 9.53943 27.9062 9.71092V22.4688C27.9062 22.6423 27.8163 22.8034 27.6687 22.8944L16.1062 30.0237C15.9453 30.1229 15.7422 30.1229 15.5813 30.0237L4.01883 22.8944C3.87117 22.8034 3.78125 22.6423 3.78125 22.4688V9.71092Z" fill="url(#paint0_linear_18_21935)"/>
<path d="M3.78125 9.71092C3.78125 9.53943 3.86913 9.3799 4.01409 9.28828L15.5766 1.97934C15.7398 1.87619 15.9477 1.87619 16.1109 1.97934L27.6734 9.28828C27.8184 9.3799 27.9062 9.53943 27.9062 9.71092V22.4688C27.9062 22.6423 27.8163 22.8034 27.6687 22.8944L16.1062 30.0237C15.9453 30.1229 15.7422 30.1229 15.5813 30.0237L4.01883 22.8944C3.87117 22.8034 3.78125 22.6423 3.78125 22.4688V9.71092Z" fill="url(#paint1_linear_18_21935)"/>
</g>
<g filter="url(#filter1_i_18_21935)">
<path d="M15.75 30.0892C15.6912 30.078 15.634 30.0561 15.5813 30.0236L4.01883 22.8944C3.87117 22.8034 3.78125 22.6423 3.78125 22.4688V9.71582L15.5139 17.0075C15.6607 17.0987 15.75 17.2593 15.75 17.4322V30.0892Z" fill="url(#paint2_linear_18_21935)"/>
</g>
<path d="M27.8779 9.54504C27.8964 9.59761 27.9062 9.6536 27.9062 9.71093V22.4689C27.9062 22.6423 27.8163 22.8034 27.6687 22.8945L16.1062 30.0237C15.998 30.0904 15.8707 30.1122 15.75 30.0892V17.348C15.75 17.1751 15.8393 17.0146 15.9861 16.9233L27.7851 9.5904C27.8152 9.57172 27.8463 9.55666 27.8779 9.54504Z" fill="url(#paint3_linear_18_21935)"/>
<path d="M27.8779 9.54504C27.8964 9.59761 27.9062 9.6536 27.9062 9.71093V22.4689C27.9062 22.6423 27.8163 22.8034 27.6687 22.8945L16.1062 30.0237C15.998 30.0904 15.8707 30.1122 15.75 30.0892V17.348C15.75 17.1751 15.8393 17.0146 15.9861 16.9233L27.7851 9.5904C27.8152 9.57172 27.8463 9.55666 27.8779 9.54504Z" fill="url(#paint4_linear_18_21935)"/>
<g filter="url(#filter2_i_18_21935)">
<path d="M10.7812 22.8345C10.7812 22.5992 11.0398 22.4555 11.2396 22.5798L14.3655 24.5231C14.5123 24.6143 14.6016 24.7749 14.6016 24.9477V27.2082C14.6016 27.4435 14.343 27.5872 14.1432 27.4629L11.0173 25.5196C10.8705 25.4284 10.7812 25.2678 10.7812 25.095V22.8345Z" fill="url(#paint5_linear_18_21935)"/>
</g>
<g filter="url(#filter3_i_18_21935)">
<path d="M8.25 12.8625V15.6073L11.1719 17.3573V14.8037C11.1719 14.4624 11.3443 14.1457 11.6319 13.9617C15.6217 11.4096 22.8101 6.75216 22.9844 6.58385C23.1445 6.46667 23.3568 6.52396 23.4219 6.6151C23.4219 6.4276 23.3229 6.31823 23.2734 6.28698L20.5336 4.6146C20.3698 4.5146 20.1631 4.51721 20.0019 4.62133L8.7991 11.8543C8.45678 12.0753 8.25 12.455 8.25 12.8625Z" fill="#966957"/>
<path d="M8.25 12.8625V15.6073L11.1719 17.3573V14.8037C11.1719 14.4624 11.3443 14.1457 11.6319 13.9617C15.6217 11.4096 22.8101 6.75216 22.9844 6.58385C23.1445 6.46667 23.3568 6.52396 23.4219 6.6151C23.4219 6.4276 23.3229 6.31823 23.2734 6.28698L20.5336 4.6146C20.3698 4.5146 20.1631 4.51721 20.0019 4.62133L8.7991 11.8543C8.45678 12.0753 8.25 12.455 8.25 12.8625Z" fill="url(#paint6_linear_18_21935)"/>
<path d="M8.25 12.8625V15.6073L11.1719 17.3573V14.8037C11.1719 14.4624 11.3443 14.1457 11.6319 13.9617C15.6217 11.4096 22.8101 6.75216 22.9844 6.58385C23.1445 6.46667 23.3568 6.52396 23.4219 6.6151C23.4219 6.4276 23.3229 6.31823 23.2734 6.28698L20.5336 4.6146C20.3698 4.5146 20.1631 4.51721 20.0019 4.62133L8.7991 11.8543C8.45678 12.0753 8.25 12.455 8.25 12.8625Z" fill="url(#paint7_linear_18_21935)"/>
</g>
<g filter="url(#filter4_f_18_21935)">
<path d="M23.2188 6.39641C23.1406 6.34016 23.0195 6.37298 22.9688 6.39641L11.4219 13.9277C11.3932 13.9459 11.3195 14.0081 11.2539 14.1113" stroke="#A47E73" stroke-width="0.05"/>
</g>
<g filter="url(#filter5_f_18_21935)">
<path d="M16 16.8729L27.625 9.62292" stroke="#F4CAA3" stroke-width="0.2" stroke-linecap="round"/>
</g>
<defs>
<filter id="filter0_i_18_21935" x="3.78125" y="1.90198" width="24.125" height="28.296" filterUnits="userSpaceOnUse" color-interpolation-filters="sRGB">
<feFlood flood-opacity="0" result="BackgroundImageFix"/>
<feBlend mode="normal" in="SourceGraphic" in2="BackgroundImageFix" result="shape"/>
<feColorMatrix in="SourceAlpha" type="matrix" values="0 0 0 0 0 0 0 0 0 0 0 0 0 0 0 0 0 0 127 0" result="hardAlpha"/>
<feOffset dy="0.1"/>
<feGaussianBlur stdDeviation="0.15"/>
<feComposite in2="hardAlpha" operator="arithmetic" k2="-1" k3="1"/>
<feColorMatrix type="matrix" values="0 0 0 0 0.843137 0 0 0 0 0.694118 0 0 0 0 0.52549 0 0 0 1 0"/>
<feBlend mode="normal" in2="shape" result="effect1_innerShadow_18_21935"/>
</filter>
<filter id="filter1_i_18_21935" x="3.78125" y="9.71582" width="12.9688" height="21.3734" filterUnits="userSpaceOnUse" color-interpolation-filters="sRGB">
<feFlood flood-opacity="0" result="BackgroundImageFix"/>
<feBlend mode="normal" in="SourceGraphic" in2="BackgroundImageFix" result="shape"/>
<feColorMatrix in="SourceAlpha" type="matrix" values="0 0 0 0 0 0 0 0 0 0 0 0 0 0 0 0 0 0 127 0" result="hardAlpha"/>
<feOffset dx="1" dy="1"/>
<feGaussianBlur stdDeviation="1.5"/>
<feComposite in2="hardAlpha" operator="arithmetic" k2="-1" k3="1"/>
<feColorMatrix type="matrix" values="0 0 0 0 0.831373 0 0 0 0 0.670588 0 0 0 0 0.545098 0 0 0 1 0"/>
<feBlend mode="normal" in2="shape" result="effect1_innerShadow_18_21935"/>
</filter>
<filter id="filter2_i_18_21935" x="10.6812" y="22.5341" width="3.92031" height="4.97461" filterUnits="userSpaceOnUse" color-interpolation-filters="sRGB">
<feFlood flood-opacity="0" result="BackgroundImageFix"/>
<feBlend mode="normal" in="SourceGraphic" in2="BackgroundImageFix" result="shape"/>
<feColorMatrix in="SourceAlpha" type="matrix" values="0 0 0 0 0 0 0 0 0 0 0 0 0 0 0 0 0 0 127 0" result="hardAlpha"/>
<feOffset dx="-0.15"/>
<feGaussianBlur stdDeviation="0.05"/>
<feComposite in2="hardAlpha" operator="arithmetic" k2="-1" k3="1"/>
<feColorMatrix type="matrix" values="0 0 0 0 0.760103 0 0 0 0 0.683293 0 0 0 0 0.795016 0 0 0 1 0"/>
<feBlend mode="normal" in2="shape" result="effect1_innerShadow_18_21935"/>
</filter>
<filter id="filter3_i_18_21935" x="8.15" y="4.54138" width="15.2719" height="12.8159" filterUnits="userSpaceOnUse" color-interpolation-filters="sRGB">
<feFlood flood-opacity="0" result="BackgroundImageFix"/>
<feBlend mode="normal" in="SourceGraphic" in2="BackgroundImageFix" result="shape"/>
<feColorMatrix in="SourceAlpha" type="matrix" values="0 0 0 0 0 0 0 0 0 0 0 0 0 0 0 0 0 0 127 0" result="hardAlpha"/>
<feOffset dx="-0.1"/>
<feGaussianBlur stdDeviation="0.05"/>
<feComposite in2="hardAlpha" operator="arithmetic" k2="-1" k3="1"/>
<feColorMatrix type="matrix" values="0 0 0 0 0.47451 0 0 0 0 0.266667 0 0 0 0 0.301961 0 0 0 1 0"/>
<feBlend mode="normal" in2="shape" result="effect1_innerShadow_18_21935"/>
</filter>
<filter id="filter4_f_18_21935" x="11.1328" y="6.24033" width="12.2005" height="7.9843" filterUnits="userSpaceOnUse" color-interpolation-filters="sRGB">
<feFlood flood-opacity="0" result="BackgroundImageFix"/>
<feBlend mode="normal" in="SourceGraphic" in2="BackgroundImageFix" result="shape"/>
<feGaussianBlur stdDeviation="0.05" result="effect1_foregroundBlur_18_21935"/>
</filter>
<filter id="filter5_f_18_21935" x="15.65" y="9.27295" width="12.325" height="7.94995" filterUnits="userSpaceOnUse" color-interpolation-filters="sRGB">
<feFlood flood-opacity="0" result="BackgroundImageFix"/>
<feBlend mode="normal" in="SourceGraphic" in2="BackgroundImageFix" result="shape"/>
<feGaussianBlur stdDeviation="0.125" result="effect1_foregroundBlur_18_21935"/>
</filter>
<linearGradient id="paint0_linear_18_21935" x1="15.8438" y1="1.90198" x2="15.8438" y2="30.0981" gradientUnits="userSpaceOnUse">
<stop stop-color="#DEB586"/>
<stop offset="1" stop-color="#D7AA82"/>
</linearGradient>
<linearGradient id="paint1_linear_18_21935" x1="10.625" y1="14.0761" x2="11.0781" y2="13.3573" gradientUnits="userSpaceOnUse">
<stop offset="0.0656074" stop-color="#C99D78"/>
<stop offset="1" stop-color="#DCB185" stop-opacity="0"/>
</linearGradient>
<linearGradient id="paint2_linear_18_21935" x1="5.37616" y1="15.1688" x2="13.8662" y2="29.3715" gradientUnits="userSpaceOnUse">
<stop stop-color="#B98875"/>
<stop offset="1" stop-color="#AA684F"/>
</linearGradient>
<linearGradient id="paint3_linear_18_21935" x1="16.5937" y1="16.748" x2="24.5937" y2="25.0605" gradientUnits="userSpaceOnUse">
<stop stop-color="#D7A585"/>
<stop offset="1" stop-color="#BD7943"/>
</linearGradient>
<linearGradient id="paint4_linear_18_21935" x1="15.4245" y1="25.2131" x2="16.5831" y2="25.1487" gradientUnits="userSpaceOnUse">
<stop stop-color="#B46C4B"/>
<stop offset="1" stop-color="#BD7E61" stop-opacity="0"/>
</linearGradient>
<linearGradient id="paint5_linear_18_21935" x1="11.3413" y1="22.7435" x2="13.9609" y2="27.7934" gradientUnits="userSpaceOnUse">
<stop stop-color="#CAB6CD"/>
<stop offset="1" stop-color="#D1BED7"/>
</linearGradient>
<linearGradient id="paint6_linear_18_21935" x1="8.8125" y1="15.8573" x2="10.8125" y2="12.8885" gradientUnits="userSpaceOnUse">
<stop offset="0.649314" stop-color="#8D6D6C"/>
<stop offset="0.725768" stop-color="#83554C"/>
<stop offset="0.825328" stop-color="#83554C"/>
<stop offset="1" stop-color="#976A58" stop-opacity="0"/>
</linearGradient>
<linearGradient id="paint7_linear_18_21935" x1="22.6562" y1="5.77917" x2="21.6563" y2="6.90417" gradientUnits="userSpaceOnUse">
<stop stop-color="#9C6F5D"/>
<stop offset="1" stop-color="#9C6F5D" stop-opacity="0"/>
</linearGradient>
</defs>
</svg>

<svg width="32" height="32" fill="none" xmlns="http://www.w3.org/2000/svg"><g filter="url(#a)"><path d="M3.781 9.71a.5.5 0 0 1 .233-.422L15.577 1.98a.5.5 0 0 1 .534 0l11.562 7.31a.5.5 0 0 1 .233.422v12.758a.5.5 0 0 1-.237.425l-11.563 7.13a.5.5 0 0 1-.525 0L4.02 22.894a.5.5 0 0 1-.238-.425V9.71Z" fill="url(#b)"/><path d="M3.781 9.71a.5.5 0 0 1 .233-.422L15.577 1.98a.5.5 0 0 1 .534 0l11.562 7.31a.5.5 0 0 1 .233.422v12.758a.5.5 0 0 1-.237.425l-11.563 7.13a.5.5 0 0 1-.525 0L4.02 22.894a.5.5 0 0 1-.238-.425V9.71Z" fill="url(#c)"/></g><g filter="url(#d)"><path d="M15.75 30.09a.5.5 0 0 1-.169-.066L4.02 22.894a.5.5 0 0 1-.238-.425V9.716l11.733 7.292a.5.5 0 0 1 .236.424V30.09Z" fill="url(#e)"/></g><path d="M27.878 9.545a.5.5 0 0 1 .028.166v12.758a.5.5 0 0 1-.237.425l-11.563 7.13a.5.5 0 0 1-.356.065V17.348a.5.5 0 0 1 .236-.425l11.8-7.333a.51.51 0 0 1 .092-.045Z" fill="url(#f)"/><path d="M27.878 9.545a.5.5 0 0 1 .028.166v12.758a.5.5 0 0 1-.237.425l-11.563 7.13a.5.5 0 0 1-.356.065V17.348a.5.5 0 0 1 .236-.425l11.8-7.333a.51.51 0 0 1 .092-.045Z" fill="url(#g)"/><g filter="url(#h)"><path d="M10.781 22.834a.3.3 0 0 1 .459-.254l3.126 1.943a.5.5 0 0 1 .236.425v2.26a.3.3 0 0 1-.459.255l-3.126-1.943a.5.5 0 0 1-.236-.425v-2.26Z" fill="url(#i)"/></g><g filter="url(#j)"><path d="M8.25 12.863v2.744l2.922 1.75v-2.553c0-.342.172-.658.46-.842 3.99-2.552 11.178-7.21 11.352-7.378.16-.117.373-.06.438.031 0-.187-.1-.297-.149-.328l-2.74-1.672a.5.5 0 0 0-.531.006L8.799 11.854a1.2 1.2 0 0 0-.549 1.009Z" fill="#966957"/><path d="M8.25 12.863v2.744l2.922 1.75v-2.553c0-.342.172-.658.46-.842 3.99-2.552 11.178-7.21 11.352-7.378.16-.117.373-.06.438.031 0-.187-.1-.297-.149-.328l-2.74-1.672a.5.5 0 0 0-.531.006L8.799 11.854a1.2 1.2 0 0 0-.549 1.009Z" fill="url(#k)"/><path d="M8.25 12.863v2.744l2.922 1.75v-2.553c0-.342.172-.658.46-.842 3.99-2.552 11.178-7.21 11.352-7.378.16-.117.373-.06.438.031 0-.187-.1-.297-.149-.328l-2.74-1.672a.5.5 0 0 0-.531.006L8.799 11.854a1.2 1.2 0 0 0-.549 1.009Z" fill="url(#l)"/></g><g filter="url(#m)"><path d="M23.219 6.396c-.078-.056-.2-.023-.25 0l-11.547 7.532a.643.643 0 0 0-.168.183" stroke="#A47E73" stroke-width=".05"/></g><g filter="url(#n)"><path d="m16 16.873 11.625-7.25" stroke="#F4CAA3" stroke-width=".2" stroke-linecap="round"/></g><defs><linearGradient id="b" x1="15.844" y1="1.902" x2="15.844" y2="30.098" gradientUnits="userSpaceOnUse"><stop stop-color="#DEB586"/><stop offset="1" stop-color="#D7AA82"/></linearGradient><linearGradient id="c" x1="10.625" y1="14.076" x2="11.078" y2="13.357" gradientUnits="userSpaceOnUse"><stop offset=".066" stop-color="#C99D78"/><stop offset="1" stop-color="#DCB185" stop-opacity="0"/></linearGradient><linearGradient id="e" x1="5.376" y1="15.169" x2="13.866" y2="29.372" gradientUnits="userSpaceOnUse"><stop stop-color="#B98875"/><stop offset="1" stop-color="#AA684F"/></linearGradient><linearGradient id="f" x1="16.594" y1="16.748" x2="24.594" y2="25.061" gradientUnits="userSpaceOnUse"><stop stop-color="#D7A585"/><stop offset="1" stop-color="#BD7943"/></linearGradient><linearGradient id="g" x1="15.425" y1="25.213" x2="16.583" y2="25.149" gradientUnits="userSpaceOnUse"><stop stop-color="#B46C4B"/><stop offset="1" stop-color="#BD7E61" stop-opacity="0"/></linearGradient><linearGradient id="i" x1="11.341" y1="22.744" x2="13.961" y2="27.793" gradientUnits="userSpaceOnUse"><stop stop-color="#CAB6CD"/><stop offset="1" stop-color="#D1BED7"/></linearGradient><linearGradient id="k" x1="8.813" y1="15.857" x2="10.813" y2="12.889" gradientUnits="userSpaceOnUse"><stop offset=".649" stop-color="#8D6D6C"/><stop offset=".726" stop-color="#83554C"/><stop offset=".825" stop-color="#83554C"/><stop offset="1" stop-color="#976A58" stop-opacity="0"/></linearGradient><linearGradient id="l" x1="22.656" y1="5.779" x2="21.656" y2="6.904" gradientUnits="userSpaceOnUse"><stop stop-color="#9C6F5D"/><stop offset="1" stop-color="#9C6F5D" stop-opacity="0"/></linearGradient><filter id="a" x="3.781" y="1.902" width="24.125" height="28.296" filterUnits="userSpaceOnUse" color-interpolation-filters="sRGB"><feFlood flood-opacity="0" result="BackgroundImageFix"/><feBlend in="SourceGraphic" in2="BackgroundImageFix" result="shape"/><feColorMatrix in="SourceAlpha" values="0 0 0 0 0 0 0 0 0 0 0 0 0 0 0 0 0 0 127 0" result="hardAlpha"/><feOffset dy=".1"/><feGaussianBlur stdDeviation=".15"/><feComposite in2="hardAlpha" operator="arithmetic" k2="-1" k3="1"/><feColorMatrix values="0 0 0 0 0.843137 0 0 0 0 0.694118 0 0 0 0 0.52549 0 0 0 1 0"/><feBlend in2="shape" result="effect1_innerShadow_18_21935"/></filter><filter id="d" x="3.781" y="9.716" width="12.969" height="21.373" filterUnits="userSpaceOnUse" color-interpolation-filters="sRGB"><feFlood flood-opacity="0" result="BackgroundImageFix"/><feBlend in="SourceGraphic" in2="BackgroundImageFix" result="shape"/><feColorMatrix in="SourceAlpha" values="0 0 0 0 0 0 0 0 0 0 0 0 0 0 0 0 0 0 127 0" result="hardAlpha"/><feOffset dx="1" dy="1"/><feGaussianBlur stdDeviation="1.5"/><feComposite in2="hardAlpha" operator="arithmetic" k2="-1" k3="1"/><feColorMatrix values="0 0 0 0 0.831373 0 0 0 0 0.670588 0 0 0 0 0.545098 0 0 0 1 0"/><feBlend in2="shape" result="effect1_innerShadow_18_21935"/></filter><filter id="h" x="10.681" y="22.534" width="3.92" height="4.975" filterUnits="userSpaceOnUse" color-interpolation-filters="sRGB"><feFlood flood-opacity="0" result="BackgroundImageFix"/><feBlend in="SourceGraphic" in2="BackgroundImageFix" result="shape"/><feColorMatrix in="SourceAlpha" values="0 0 0 0 0 0 0 0 0 0 0 0 0 0 0 0 0 0 127 0" result="hardAlpha"/><feOffset dx="-.15"/><feGaussianBlur stdDeviation=".05"/><feComposite in2="hardAlpha" operator="arithmetic" k2="-1" k3="1"/><feColorMatrix values="0 0 0 0 0.760103 0 0 0 0 0.683293 0 0 0 0 0.795016 0 0 0 1 0"/><feBlend in2="shape" result="effect1_innerShadow_18_21935"/></filter><filter id="j" x="8.15" y="4.541" width="15.272" height="12.816" filterUnits="userSpaceOnUse" color-interpolation-filters="sRGB"><feFlood flood-opacity="0" result="BackgroundImageFix"/><feBlend in="SourceGraphic" in2="BackgroundImageFix" result="shape"/><feColorMatrix in="SourceAlpha" values="0 0 0 0 0 0 0 0 0 0 0 0 0 0 0 0 0 0 127 0" result="hardAlpha"/><feOffset dx="-.1"/><feGaussianBlur stdDeviation=".05"/><feComposite in2="hardAlpha" operator="arithmetic" k2="-1" k3="1"/><feColorMatrix values="0 0 0 0 0.47451 0 0 0 0 0.266667 0 0 0 0 0.301961 0 0 0 1 0"/><feBlend in2="shape" result="effect1_innerShadow_18_21935"/></filter><filter id="m" x="11.133" y="6.24" width="12.2" height="7.984" filterUnits="userSpaceOnUse" color-interpolation-filters="sRGB"><feFlood flood-opacity="0" result="BackgroundImageFix"/><feBlend in="SourceGraphic" in2="BackgroundImageFix" result="shape"/><feGaussianBlur stdDeviation=".05" result="effect1_foregroundBlur_18_21935"/></filter><filter id="n" x="15.65" y="9.273" width="12.325" height="7.95" filterUnits="userSpaceOnUse" color-interpolation-filters="sRGB"><feFlood flood-opacity="0" result="BackgroundImageFix"/><feBlend in="SourceGraphic" in2="BackgroundImageFix" result="shape"/><feGaussianBlur stdDeviation=".125" result="effect1_foregroundBlur_18_21935"/></filter></defs></svg>
